Dominus_Funeral/22/apps/system-software-install.svg

<svg xmlns="http://www.w3.org/2000/svg" width="24" height="24" viewBox="0 0 6.35 6.35"><defs><linearGradient id="b"><stop offset="0"/><stop offset="1" stop-opacity="0"/></linearGradient><linearGradient id="a"><stop offset="0" stop-color="#000200"/><stop offset="1" stop-color="#000200" stop-opacity="0"/></linearGradient><linearGradient id="c" x1="24.82" x2="25" y1="15.38" y2="37.28" gradientTransform="matrix(.79363 0 0 .9639 65.3 -7.76)" gradientUnits="userSpaceOnUse"><stop offset="0" stop-color="#eacfb0"/><stop offset=".24" stop-color="#b09b77"/><stop offset=".28" stop-color="#e3cfa5"/><stop offset="1" stop-color="#997b53"/></linearGradient></defs><path d="M1.22.18a.43.43 0 0 0-.34.16l-.4.48a.58.58 0 0 0-.13.37v3.63a.58.58 0 0 0 .58.58h2.56L2.38 4.07h.8V2.61h2.4V1.2a.58.58 0 0 0-.14-.38l-.4-.48A.44.44 0 0 0 4.7.18zM1.2.47H4.7l.27.29h-4zM3.8 3.14v1.33h-.62l1.42 1.7L6 4.47H5.4V3.14z" fill="#1a1a1a" stroke-width=".29"/></svg>

<?xml version="1.0" encoding="UTF-8" standalone="no"?>
<svg
   xmlns:dc="http://purl.org/dc/elements/1.1/"
   xmlns:cc="http://creativecommons.org/ns#"
   xmlns:rdf="http://www.w3.org/1999/02/22-rdf-syntax-ns#"
   xmlns:svg="http://www.w3.org/2000/svg"
   xmlns="http://www.w3.org/2000/svg"
   xmlns:sodipodi="http://sodipodi.sourceforge.net/DTD/sodipodi-0.dtd"
   xmlns:inkscape="http://www.inkscape.org/namespaces/inkscape"
   width="24"
   height="24"
   viewBox="0 0 6.35 6.35"
   version="1.1"
   id="svg25"
   sodipodi:docname="system-software-install.svg"
   inkscape:version="0.92.4 (5da689c313, 2019-01-14)">
  <metadata
     id="metadata29">
    <rdf:RDF>
      <cc:Work
         rdf:about="">
        <dc:format>image/svg+xml</dc:format>
        <dc:type
           rdf:resource="http://purl.org/dc/dcmitype/StillImage" />
        <dc:title></dc:title>
      </cc:Work>
    </rdf:RDF>
  </metadata>
  <sodipodi:namedview
     pagecolor="#ffffff"
     bordercolor="#666666"
     borderopacity="1"
     objecttolerance="10"
     gridtolerance="10"
     guidetolerance="10"
     inkscape:pageopacity="0"
     inkscape:pageshadow="2"
     inkscape:window-width="1138"
     inkscape:window-height="480"
     id="namedview27"
     showgrid="false"
     inkscape:zoom="9.8333333"
     inkscape:cx="1.0677966"
     inkscape:cy="12"
     inkscape:window-x="0"
     inkscape:window-y="25"
     inkscape:window-maximized="0"
     inkscape:current-layer="svg25" />
  <defs
     id="defs21">
    <linearGradient
       id="b">
      <stop
         offset="0"
         id="stop2" />
      <stop
         offset="1"
         stop-opacity="0"
         id="stop4" />
    </linearGradient>
    <linearGradient
       id="a">
      <stop
         offset="0"
         stop-color="#000200"
         id="stop7" />
      <stop
         offset="1"
         stop-color="#000200"
         stop-opacity="0"
         id="stop9" />
    </linearGradient>
    <linearGradient
       id="c"
       x1="24.82"
       x2="25"
       y1="15.38"
       y2="37.28"
       gradientTransform="matrix(.79363 0 0 .9639 65.3 -7.76)"
       gradientUnits="userSpaceOnUse">
      <stop
         offset="0"
         stop-color="#eacfb0"
         id="stop12" />
      <stop
         offset=".24"
         stop-color="#b09b77"
         id="stop14" />
      <stop
         offset=".28"
         stop-color="#e3cfa5"
         id="stop16" />
      <stop
         offset="1"
         stop-color="#997b53"
         id="stop18" />
    </linearGradient>
  </defs>
  <path
     d="M 1.22,0.18 A 0.43,0.43 0 0 0 0.88,0.34 L 0.48,0.82 A 0.58,0.58 0 0 0 0.35,1.19 V 4.82 A 0.58,0.58 0 0 0 0.93,5.4 H 3.49 L 2.38,4.07 h 0.8 V 2.61 h 2.4 V 1.2 A 0.58,0.58 0 0 0 5.44,0.82 L 5.04,0.34 A 0.44,0.44 0 0 0 4.7,0.18 Z M 1.2,0.47 h 3.5 l 0.27,0.29 h -4 z M 3.8,3.14 V 4.47 H 3.18 L 4.6,6.17 6,4.47 H 5.4 V 3.14 Z"
     id="path23"
     inkscape:connector-curvature="0"
     style="fill:#1a1a1a;stroke-width:0.28999999" />
</svg>
